X:1
T:Ic bin ewer Tröster
T:Joachim a Burck
T:Source : Breitkopf & Härtel---Leipzig---R.Eitner---1898. First print : 20 Deutsche Liedlein zu 4 Stimmen---Erfurt---G.Baumann---1575. Editor : André Vierendeels (06/11/17). Notes : Original clefs : C1, C3, C3, F4 Editorial accidentals above the staff Text by Ludovico Helmbold (Christeliche Reimen) 
T:Ic bin ewer Tröster
T:©
T:©
T:©
C:Joachim a Burck
Z:©
%%score [ 1 2 3 4 ]
L:1/8
Q:1/4=120
M:4/4
K:C
V:1 treble nm="Soprano" snm="S"
V:2 treble nm="Alto" snm="A"
V:3 treble-8 nm="Tenor" snm="T"
V:4 bass nm="Bass" snm="B"
V:1
"^1)" G4 G4 | G2 ^F4 G2 | E4 D4 | z2 D2 G2 G2 | A2 B2 c4 | A2 A2 B2 G2 | A2 G4 G2- | %7
w: Ich, ich|bin ew- er|Trö- ster,|ich, ich bin|ew- er Trö-|ster, spricht al- ler|Her- ren Her-|
w: Die doch|all müs- sen|ster- ben,|die doch all|müs- sen ster-|ben, kei- ner wird|sich er- er-|
"^#""^#" G2 FE F4 |[M:2/4] G4 |: z2 A2 |[M:4/4] A4 A2 G2- | G2 ^F2 G4 | ^F2 A2 B2 B2 | A2 B2 c4 | %14
w: |scher.|Hier-|an sol- tu|_ ge- den-|cken, hier- an sol-|tu ge- den-|
w: * weh- * *|ren.|Was|fürch- stu ih-|* re Kin-|der, was fürch- stu|ih- re Kin-|
 A2 B2 B2 B2 | A2 B2 c4 | A4 B4 | G6 G2 | A4 G2 G2- |"^#""^#" G2 FE F4 | G8 :| %21
w: cken, was fürch- stu|dich für Men-|schen, was|fürch- stu|dich für Men-||schen?|
w: der, wie hew werd'n-|sie ver- schwin-|den, wie|hew werd'n|sie ver- schwin-||den.|
V:2
"^2)""^1)" E4 D4 | C2 D4 D2 | C4 B,4 | z2 D2 D2 D2 | F2 F2 G4 | F2 F2 D4 | D4 D2 C2 | D3 E D4 | %8
w: Ich, ich|bin ew- er|Trö- ster,|ich, ich bin|ew- er Trö-|ster, spricht al-|ler Her- ren|Her- * *|
w: Mein Wort|thu ich dir|ge- ben,|mein Wort thu|ich dir ge-|ben, das sol|dein Mund stets|pfle- * *|
[M:2/4] D4 |: z2 D2 |[M:4/4] F4 F2 E2 | D2 D3 C C2 | D2 ^F2 G2 G2 | A2 G2 E4 | F2 G2 G2 G2 | %15
w: scher.|Hier-|an sol- tu|ge- den- * *|cken, hier- an sol-|tu ge- den-|cken, was fürch- stu|
w: gen.|Der|Schat- ten mei-|ner Hän- * *|de schützt dich an|al- len En-|den, der Schat- ten|
 A2 G2 E4 | F4 G4 | D4 E4 |"^#" F4 D4 | D8 | D8 :| %21
w: dich für Men-|schen, was|fürch- stu|dich für|Men-|schen?|
w: mei- ner Hän-|de schützt|dich an|al- len|En-|den.|
V:3
"^3)""^1)" c4 B4 | G2 A4 B2 | G4 G4 | z2 B2 B2 B2 | c2 d2 e4 | d2 d2 B4 | A2 B4 G2 | A8 | %8
w: Ich, ich|bin ew- er|Trö- ster,|ich, ich bin|ew- er Trö-|ster, spricht al-|ler Her- ren|Her-|
w: Dass ich|den Him- mel|pflan- ze,|dass ich den|Him- mel pflan-|ze, der Er-|den Grund be-|schan-|
[M:2/4] B4 |: z2 d2 |[M:4/4] c4 c2 B2- | B2 A2 G4 | A2 d2 d2 d2 | d2 d2 c4 | d2 d2 d2 d2 | %15
w: scher.|Hier-|an sol- tu|_ ge- den-|cken, hier- an sol-|tu ge- den-|cken, was fürch- stu|
w: ze,|und|geb Sy- on|_ den Na-|men, dass sie mein|Volk sey, A-|men, ud geb Sy-|
 d2 d2 c4 | d6 d2 | B4 G4 | d4 B4 | A2 G2 A4 | G8 :| %21
w: dich für Men-|schen, was|fürch- stu|dich für|Men- * *|schen?|
w: on den Na-|men, dass|sie mein|Volk sey,|A- * *|men.|
V:4
"^4)""^1)" C,4 G,4 | E,2 D,4 G,,2 | C,4 G,,4 | z2 G,2 G,2 G,2 | F,2 D,2 C,4 | D,2 D,2 G,4 | %6
w: Ich, ich|bin ew- er|Trö- ster,|ich, ich bin|ew- er Trö-|ster, spricht al-|
 ^F,2 G,4 E,2 | D,3 C, D,4 |[M:2/4] G,,4 |: z2 D,2 |[M:4/4] F,4 F,2 G,2- | G,2 D,2 E,4 | %12
w: ler Her- ren|Her- * *|scher.|Hier-|an sol- tu|_ ge- den-|
 D,2 D,2 G,2 G,2 | ^F,2 G,2 A,4 | D,2 G,2 G,2 G,2 | ^F,2 G,2 A,4 | D,4 G,4 | G,4 E,4 | D,4 G,,4 | %19
w: cken, hier- an sol-|tu ge- den-|cken; was fürch- stu|dich für Men-|schen, was|fürch- stu|dich für|
 D,8 | G,,8 :| %21
w: Men-|schen?|

